; G-Code generated by Simplify3D(R) Version 4.0.0
; Nov 7, 2021 at 1:29:44 AM
; Settings Summary
;   processName,Process1
;   applyToModels,ScaleTop
;   profileName,5mm offset
;   profileVersion,2021-11-07 01:25:25
;   baseProfile,Wanhao Duplicator i3 (modified)
;   printMaterial,PLA
;   printQuality,Fast
;   printExtruders,
;   extruderName,Primary Extruder
;   extruderToolheadNumber,0
;   extruderDiameter,0.4
;   extruderAutoWidth,1
;   extruderWidth,0.48
;   extrusionMultiplier,1
;   extruderUseRetract,1
;   extruderRetractionDistance,4
;   extruderExtraRestartDistance,0
;   extruderRetractionZLift,0.2
;   extruderRetractionSpeed,1800
;   extruderUseCoasting,1
;   extruderCoastingDistance,0.12
;   extruderUseWipe,0
;   extruderWipeDistance,3
;   primaryExtruder,0
;   layerHeight,0.15
;   topSolidLayers,5
;   bottomSolidLayers,4
;   perimeterOutlines,2
;   printPerimetersInsideOut,1
;   startPointOption,2
;   startPointOriginX,0
;   startPointOriginY,300
;   sequentialIslands,0
;   spiralVaseMode,0
;   firstLayerHeightPercentage,100
;   firstLayerWidthPercentage,100
;   firstLayerUnderspeed,0.35
;   useRaft,0
;   raftExtruder,0
;   raftTopLayers,3
;   raftBaseLayers,2
;   raftOffset,3
;   raftSeparationDistance,0.14
;   raftTopInfill,100
;   aboveRaftSpeedMultiplier,0.3
;   useSkirt,1
;   skirtExtruder,0
;   skirtLayers,1
;   skirtOutlines,4
;   skirtOffset,7
;   usePrimePillar,0
;   primePillarExtruder,999
;   primePillarWidth,12
;   primePillarLocation,7
;   primePillarSpeedMultiplier,1
;   useOozeShield,0
;   oozeShieldExtruder,999
;   oozeShieldOffset,2
;   oozeShieldOutlines,1
;   oozeShieldSidewallShape,1
;   oozeShieldSidewallAngle,30
;   oozeShieldSpeedMultiplier,1
;   infillExtruder,0
;   internalInfillPattern,Triangular
;   externalInfillPattern,Rectilinear
;   infillPercentage,20
;   outlineOverlapPercentage,20
;   infillExtrusionWidthPercentage,110
;   minInfillLength,4
;   infillLayerInterval,1
;   internalInfillAngles,0,60,-60
;   overlapInternalInfillAngles,1
;   externalInfillAngles,45,-45
;   generateSupport,0
;   supportExtruder,0
;   supportInfillPercentage,25
;   supportExtraInflation,0
;   supportBaseLayers,0
;   denseSupportExtruder,0
;   denseSupportLayers,0
;   denseSupportInfillPercentage,55
;   supportLayerInterval,1
;   supportHorizontalPartOffset,0.65
;   supportUpperSeparationLayers,1
;   supportLowerSeparationLayers,1
;   supportType,0
;   supportGridSpacing,2
;   maxOverhangAngle,45
;   supportAngles,45,-45
;   temperatureName,Primary Extruder,Heated Bed
;   temperatureNumber,0,0
;   temperatureSetpointCount,2,1
;   temperatureSetpointLayers,1,2,1
;   temperatureSetpointTemperatures,215,210,60
;   temperatureStabilizeAtStartup,1,1
;   temperatureHeatedBed,0,1
;   temperatureRelayBetweenLayers,0,0
;   temperatureRelayBetweenLoops,0,0
;   fanLayers,1,2,3,4,5
;   fanSpeeds,0,0,30,60,100
;   blipFanToFullPower,1
;   adjustSpeedForCooling,1
;   minSpeedLayerTime,15
;   minCoolingSpeedSlowdown,20
;   increaseFanForCooling,0
;   minFanLayerTime,20
;   maxCoolingFanSpeed,100
;   increaseFanForBridging,1
;   bridgingFanSpeed,100
;   use5D,1
;   relativeEdistances,0
;   allowEaxisZeroing,1
;   independentExtruderAxes,0
;   includeM10123,0
;   stickySupport,1
;   applyToolheadOffsets,0
;   gcodeXoffset,0
;   gcodeYoffset,0
;   gcodeZoffset,0
;   overrideMachineDefinition,1
;   machineTypeOverride,0
;   strokeXoverride,235
;   strokeYoverride,235
;   strokeZoverride,250
;   originOffsetXoverride,0
;   originOffsetYoverride,-7
;   originOffsetZoverride,0
;   homeXdirOverride,-1
;   homeYdirOverride,-1
;   homeZdirOverride,-1
;   flipXoverride,-1
;   flipYoverride,1
;   flipZoverride,1
;   toolheadOffsets,0,0|0,0|0,0|0,0|0,0|0,0
;   overrideFirmwareConfiguration,1
;   firmwareTypeOverride,RepRap (Marlin/Repetier/Sprinter)
;   GPXconfigOverride,r2
;   baudRateOverride,115200
;   overridePrinterModels,1
;   printerModelsOverride
;   startingGcode,M117 <3 from Kohler,G28  ;  home  all  axes,G29 ; BLTOUCH,G92  E0  ;  reset  extrusion  distance
;   layerChangeGcode,
;   retractionGcode,
;   toolChangeGcode,
;   endingGcode,M104 S0 ; turn off extruder,M140 S0 ; turn off bed,G1 X0 Y295 F1000 ; move finished print out front,M84 ; disable motors,M106 S0 ; turn off cooling fan,,M117 Jobs Finished!
;   exportFileFormat,gcode
;   celebration,0
;   celebrationSong,Star Wars
;   postProcessing,
;   defaultSpeed,4500
;   outlineUnderspeed,0.5
;   solidInfillUnderspeed,0.8
;   supportUnderspeed,0.8
;   rapidXYspeed,7200
;   rapidZspeed,1002
;   minBridgingArea,50
;   bridgingExtraInflation,0
;   bridgingExtrusionMultiplier,0.95
;   bridgingSpeedMultiplier,1.1
;   useFixedBridgingAngle,0
;   fixedBridgingAngle,0
;   applyBridgingToPerimeters,1
;   filamentDiameters,1.732|1.73|1.73|1.73|1.73|1.73
;   filamentPricesPerKg,18|18|18|18|18|18
;   filamentDensities,1.25|1.25|1.25|1.25|1.25|1.25
;   useMinPrintHeight,0
;   minPrintHeight,0
;   useMaxPrintHeight,0
;   maxPrintHeight,5.08
;   useDiaphragm,0
;   diaphragmLayerInterval,20
;   robustSlicing,1
;   mergeAllIntoSolid,0
;   onlyRetractWhenCrossingOutline,1
;   retractBetweenLayers,1
;   useRetractionMinTravel,1
;   retractionMinTravel,2
;   retractWhileWiping,1
;   onlyWipeOutlines,1
;   avoidCrossingOutline,1
;   maxMovementDetourFactor,3
;   toolChangeRetractionDistance,12
;   toolChangeExtraRestartDistance,-0.5
;   toolChangeRetractionSpeed,600
;   externalThinWallType,0
;   internalThinWallType,1
;   thinWallAllowedOverlapPercentage,15
;   singleExtrusionMinLength,1
;   singleExtrusionMinPrintingWidthPercentage,50
;   singleExtrusionMaxPrintingWidthPercentage,200
;   singleExtrusionEndpointExtension,0.2
;   horizontalSizeCompensation,0
G90
M82
M106 S255
G4 P500
M106 S0
M140 S60
M190 S60
M104 S215 T0
M109 S215 T0
M117 <3 from Kohler
G28  ;  home  all  axes
G29 ; BLTOUCH
G92  E0  ;  reset  extrusion  distance
G92 E0
G1 E-4.0000 F1800
G1 Z0.350 F1002
; process Process1
; layer 1, Z = 0.150
T0
; tool H0.150 W0.480
; skirt
G1 X24.749 Y27.176 F7200
G1 Z0.150 F1002
G1 E0.0000 F540
G92 E0
G1 X25.366 Y26.920 E0.0204 F1575
G1 X209.634 Y26.920 E5.6515
G1 X210.251 Y27.176 E5.6720
G1 X214.824 Y31.749 E5.8696
G1 X215.080 Y32.366 E5.8900
G1 X215.080 Y216.634 E11.5212
G1 X214.824 Y217.251 E11.5416
G1 X210.251 Y221.824 E11.7392
G1 X209.634 Y222.080 E11.7596
G1 X25.366 Y222.080 E17.3908
G1 X24.749 Y221.824 E17.4112
G1 X20.176 Y217.251 E17.6088
G1 X19.920 Y216.634 E17.6293
G1 X19.920 Y32.366 E23.2604
G1 X20.176 Y31.749 E23.2808
G1 X24.664 Y27.261 E23.4748
G1 X24.749 Y27.176 F1575
G1 X25.021 Y27.583 F7200
G92 E0
G1 X25.462 Y27.400 E0.0146 F1575
G1 X209.538 Y27.400 E5.6399
G1 X209.979 Y27.583 E5.6545
G1 X214.417 Y32.021 E5.8463
G1 X214.600 Y32.462 E5.8609
G1 X214.600 Y216.538 E11.4861
G1 X214.417 Y216.979 E11.5007
G1 X209.979 Y221.417 E11.6925
G1 X209.538 Y221.600 E11.7071
G1 X25.462 Y221.600 E17.3324
G1 X25.021 Y221.417 E17.3470
G1 X20.583 Y216.979 E17.5388
G1 X20.400 Y216.538 E17.5534
G1 X20.400 Y32.462 E23.1787
G1 X20.583 Y32.021 E23.1933
G1 X24.936 Y27.668 E23.3814
G1 X25.021 Y27.583 F1575
G1 X25.293 Y27.990 F7200
G92 E0
G1 X25.557 Y27.880 E0.0088 F1575
G1 X209.443 Y27.880 E5.6282
G1 X209.707 Y27.990 E5.6370
G1 X214.010 Y32.293 E5.8229
G1 X214.120 Y32.557 E5.8317
G1 X214.120 Y216.443 E11.4511
G1 X214.010 Y216.707 E11.4599
G1 X209.707 Y221.010 E11.6459
G1 X209.443 Y221.120 E11.6546
G1 X25.557 Y221.120 E17.2741
G1 X25.293 Y221.010 E17.2828
G1 X20.990 Y216.707 E17.4688
G1 X20.880 Y216.443 E17.4775
G1 X20.880 Y32.557 E23.0970
G1 X20.990 Y32.293 E23.1057
G1 X25.208 Y28.074 E23.2880
G1 X25.293 Y27.990 F1575
G1 X25.565 Y28.397 F7200
G92 E0
G1 X25.653 Y28.360 E0.0029 F1575
G1 X209.347 Y28.360 E5.6165
G1 X209.435 Y28.397 E5.6195
G1 X213.603 Y32.565 E5.7996
G1 X213.640 Y32.653 E5.8025
G1 X213.640 Y216.347 E11.4161
G1 X213.603 Y216.435 E11.4190
G1 X209.435 Y220.603 E11.5992
G1 X209.347 Y220.640 E11.6021
G1 X25.653 Y220.640 E17.2157
G1 X25.565 Y220.603 E17.2186
G1 X21.397 Y216.435 E17.3988
G1 X21.360 Y216.347 E17.4017
G1 X21.360 Y32.653 E23.0153
G1 X21.397 Y32.565 E23.0182
G1 X25.480 Y28.481 E23.1947
G1 X25.565 Y28.397 F1575
G92 E0
G1 E-4.0000 F1800
G1 Z0.350 F1002
; inner perimeter
G1 X28.835 Y35.835 F7200
G1 X29.090 Y35.835 F7200
G1 X29.320 Y36.320 F7200
G1 Z0.150 F1002
G1 E0.0000 F1800
G92 E0
G1 X205.680 Y36.320 E5.3895 F1181
G1 X205.680 Y212.680 E10.7790
G1 X29.320 Y212.680 E16.1684
G1 X29.320 Y36.440 E21.5543
G1 X29.320 Y36.320 F1181
; outer perimeter
G1 X28.840 Y35.840 F7200
G92 E0
G1 X206.160 Y35.840 E5.4188 F788
G1 X206.160 Y213.160 E10.8376
G1 X28.840 Y213.160 E16.2565
G1 X28.840 Y35.960 E21.6716
G1 X28.840 Y35.840 F788
; solid layer
G1 X204.840 Y36.704 F7200
G92 E0
G1 X205.296 Y37.160 E0.0197 F1260
G1 X205.296 Y37.839 E0.0404
G1 X204.161 Y36.704 E0.0895
G1 X203.483 Y36.704 E0.1102
G1 X205.296 Y38.517 E0.1886
G1 X205.296 Y39.196 E0.2093
G1 X202.804 Y36.704 E0.3170
G1 X202.125 Y36.704 E0.3378
G1 X205.296 Y39.875 E0.4748
G1 X205.296 Y40.554 E0.4956
G1 X201.446 Y36.704 E0.6620
G1 X200.767 Y36.704 E0.6827
G1 X205.296 Y41.233 E0.8784
G1 X205.296 Y41.912 E0.8992
G1 X200.088 Y36.704 E1.1242
G1 X199.410 Y36.704 E1.1450
G1 X205.296 Y42.590 E1.3994
G1 X205.296 Y43.269 E1.4201
G1 X198.731 Y36.704 E1.7039
G1 X198.052 Y36.704 E1.7246
G1 X205.296 Y43.948 E2.0377
G1 X205.296 Y44.627 E2.0584
G1 X197.373 Y36.704 E2.4008
G1 X196.694 Y36.704 E2.4216
G1 X205.296 Y45.306 E2.7933
G1 X205.296 Y45.984 E2.8140
G1 X196.016 Y36.704 E3.2151
G1 X195.337 Y36.704 E3.2359
G1 X205.296 Y46.663 E3.6663
G1 X205.296 Y47.342 E3.6870
G1 X194.658 Y36.704 E4.1468
G1 X193.979 Y36.704 E4.1675
G1 X205.296 Y48.021 E4.6566
G1 X205.296 Y48.700 E4.6774
G1 X193.300 Y36.704 E5.1958
G1 X192.621 Y36.704 E5.2165
G1 X205.296 Y49.379 E5.7643
G1 X205.296 Y50.057 E5.7851
G1 X191.943 Y36.704 E6.3622
G1 X191.264 Y36.704 E6.3829
G1 X205.296 Y50.736 E6.9893
G1 X205.296 Y51.415 E7.0101
G1 X190.585 Y36.704 E7.6459
G1 X189.906 Y36.704 E7.6666
G1 X205.296 Y52.094 E8.3317
G1 X205.296 Y52.773 E8.3525
G1 X189.227 Y36.704 E9.0469
G1 X188.548 Y36.704 E9.0677
G1 X205.296 Y53.452 E9.7915
G1 X205.296 Y54.130 E9.8122
G1 X187.870 Y36.704 E10.5653
G1 X187.191 Y36.704 E10.5861
G1 X205.296 Y54.809 E11.3685
G1 X205.296 Y55.488 E11.3893
G1 X186.512 Y36.704 E12.2011
G1 X185.833 Y36.704 E12.2218
G1 X205.296 Y56.167 E13.0630
G1 X205.296 Y56.846 E13.0837
G1 X185.154 Y36.704 E13.9542
G1 X184.476 Y36.704 E13.9749
G1 X205.296 Y57.524 E14.8747
G1 X205.296 Y58.203 E14.8955
G1 X183.797 Y36.704 E15.8246
G1 X183.118 Y36.704 E15.8454
G1 X205.296 Y58.882 E16.8039
G1 X205.296 Y59.561 E16.8246
G1 X182.439 Y36.704 E17.8124
G1 X181.760 Y36.704 E17.8332
G1 X205.296 Y60.240 E18.8503
G1 X205.296 Y60.919 E18.8711
G1 X181.081 Y36.704 E19.9176
G1 X180.403 Y36.704 E19.9383
G1 X205.296 Y61.597 E21.0142
G1 X205.296 Y62.276 E21.0349
G1 X179.724 Y36.704 E22.1401
G1 X179.045 Y36.704 E22.1608
G1 X205.296 Y62.955 E23.2953
G1 X205.296 Y63.634 E23.3161
G1 X178.366 Y36.704 E24.4799
G1 X177.687 Y36.704 E24.5007
G1 X205.296 Y64.313 E25.6939
G1 X205.296 Y64.991 E25.7146
G1 X177.008 Y36.704 E26.9371
G1 X176.330 Y36.704 E26.9579
G1 X205.296 Y65.670 E28.2097
G1 X205.296 Y66.349 E28.2305
G1 X175.651 Y36.704 E29.5117
G1 X174.972 Y36.704 E29.5324
G1 X205.296 Y67.028 E30.8429
G1 X205.296 Y67.707 E30.8637
G1 X174.293 Y36.704 E32.2036
G1 X173.614 Y36.704 E32.2243
G1 X205.296 Y68.386 E33.5935
G1 X205.296 Y69.064 E33.6143
G1 X172.936 Y36.704 E35.0128
G1 X172.257 Y36.704 E35.0335
G1 X205.296 Y69.743 E36.4614
G1 X205.296 Y70.422 E36.4822
G1 X171.578 Y36.704 E37.9394
G1 X170.899 Y36.704 E37.9601
G1 X205.296 Y71.101 E39.4467
G1 X205.296 Y71.780 E39.4674
G1 X170.220 Y36.704 E40.9833
G1 X169.541 Y36.704 E41.0041
G1 X205.296 Y72.459 E42.5493
G1 X205.296 Y73.137 E42.5700
G1 X168.863 Y36.704 E44.1446
G1 X168.184 Y36.704 E44.1654
G1 X205.296 Y73.816 E45.7693
G1 X205.296 Y74.495 E45.7900
G1 X167.505 Y36.704 E47.4232
G1 X166.826 Y36.704 E47.4440
G1 X205.296 Y75.174 E49.1066
G1 X205.296 Y75.853 E49.1273
G1 X166.147 Y36.704 E50.8192
G1 X165.469 Y36.704 E50.8400
G1 X205.296 Y76.531 E52.5612
G1 X205.296 Y77.210 E52.5820
G1 X164.790 Y36.704 E54.3326
G1 X164.111 Y36.704 E54.3533
G1 X205.296 Y77.889 E56.1332
G1 X205.296 Y78.568 E56.1540
G1 X163.432 Y36.704 E57.9632
G1 X162.753 Y36.704 E57.9840
G1 X205.296 Y79.247 E59.8226
G1 X205.296 Y79.926 E59.8433
G1 X162.074 Y36.704 E61.7113
G1 X161.396 Y36.704 E61.7320
G1 X205.296 Y80.604 E63.6293
G1 X205.296 Y81.283 E63.6500
G1 X160.717 Y36.704 E65.5767
G1 X160.038 Y36.704 E65.5974
G1 X205.296 Y81.962 E67.5533
G1 X205.296 Y82.641 E67.5741
G1 X159.359 Y36.704 E69.5594
G1 X158.680 Y36.704 E69.5801
G1 X205.296 Y83.320 E71.5948
G1 X205.296 Y83.999 E71.6155
G1 X158.001 Y36.704 E73.6595
G1 X157.323 Y36.704 E73.6802
G1 X205.296 Y84.677 E75.7535
G1 X205.296 Y85.356 E75.7742
G1 X156.644 Y36.704 E77.8769
G1 X155.965 Y36.704 E77.8976
G1 X205.296 Y86.035 E80.0296
G1 X205.296 Y86.714 E80.0503
G1 X155.286 Y36.704 E82.2117
G1 X154.607 Y36.704 E82.2324
G1 X205.296 Y87.393 E84.4230
G1 X205.296 Y88.071 E84.4438
G1 X153.929 Y36.704 E86.6638
G1 X153.250 Y36.704 E86.6845
G1 X205.296 Y88.750 E88.9338
G1 X205.296 Y89.429 E88.9546
G1 X152.571 Y36.704 E91.2332
G1 X151.892 Y36.704 E91.2540
G1 X205.296 Y90.108 E93.5620
G1 X205.296 Y90.787 E93.5827
G1 X151.213 Y36.704 E95.9201
G1 X150.534 Y36.704 E95.9408
G1 X205.296 Y91.466 E98.3075
G1 X205.296 Y92.144 E98.3282
G1 X149.856 Y36.704 E100.7242
G1 X149.177 Y36.704 E100.7450
G1 X205.296 Y92.823 E103.1703
G1 X205.296 Y93.502 E103.1911
G1 X148.498 Y36.704 E105.6457
G1 X147.819 Y36.704 E105.6665
G1 X205.296 Y94.181 E108.1505
G1 X205.296 Y94.860 E108.1713
G1 X147.140 Y36.704 E110.6846
G1 X146.461 Y36.704 E110.7054
G1 X205.296 Y95.539 E113.2480
G1 X205.296 Y96.217 E113.2688
G1 X145.783 Y36.704 E115.8408
G1 X145.104 Y36.704 E115.8616
G1 X205.296 Y96.896 E118.4629
G1 X205.296 Y97.575 E118.4837
G1 X144.425 Y36.704 E121.1144
G1 X143.746 Y36.704 E121.1351
G1 X205.296 Y98.254 E123.7952
G1 X205.296 Y98.933 E123.8159
G1 X143.067 Y36.704 E126.5053
G1 X142.389 Y36.704 E126.5260
G1 X205.296 Y99.611 E129.2448
G1 X205.296 Y100.290 E129.2655
G1 X141.710 Y36.704 E132.0136
G1 X141.031 Y36.704 E132.0343
G1 X205.296 Y100.969 E134.8117
G1 X205.296 Y101.648 E134.8324
G1 X140.352 Y36.704 E137.6392
G1 X139.673 Y36.704 E137.6599
G1 X205.296 Y102.327 E140.4960
G1 X205.296 Y103.006 E140.5167
G1 X138.994 Y36.704 E143.3821
G1 X138.316 Y36.704 E143.4029
G1 X205.296 Y103.684 E146.2976
G1 X205.296 Y104.363 E146.3183
G1 X137.637 Y36.704 E149.2424
G1 X136.958 Y36.704 E149.2632
G1 X205.296 Y105.042 E152.2166
G1 X205.296 Y105.721 E152.2373
G1 X136.279 Y36.704 E155.2201
G1 X135.600 Y36.704 E155.2408
G1 X205.296 Y106.400 E158.2529
G1 X205.296 Y107.078 E158.2737
G1 X134.921 Y36.704 E161.3151
G1 X134.243 Y36.704 E161.3358
G1 X205.296 Y107.757 E164.4066
G1 X205.296 Y108.436 E164.4273
G1 X133.564 Y36.704 E167.5274
G1 X132.885 Y36.704 E167.5482
G1 X205.296 Y109.115 E170.6776
G1 X205.296 Y109.794 E170.6984
G1 X132.206 Y36.704 E173.8571
G1 X131.527 Y36.704 E173.8779
G1 X205.296 Y110.473 E177.0660
G1 X205.296 Y111.151 E177.0867
G1 X130.849 Y36.704 E180.3042
G1 X130.170 Y36.704 E180.3249
G1 X205.296 Y111.830 E183.5717
G1 X205.296 Y112.509 E183.5925
G1 X129.491 Y36.704 E186.8686
G1 X128.812 Y36.704 E186.8893
G1 X205.296 Y113.188 E190.1948
G1 X205.296 Y113.867 E190.2155
G1 X128.133 Y36.704 E193.5503
G1 X127.454 Y36.704 E193.5711
G1 X205.296 Y114.546 E196.9352
G1 X205.296 Y115.224 E196.9559
G1 X126.776 Y36.704 E200.3494
G1 X126.097 Y36.704 E200.3702
